images/index/delivery-block/delivery-block-logo.svg

<svg width="47" height="31" fill="none" xmlns="http://www.w3.org/2000/svg"><g clip-path="url(#a)" fill="#000"><path d="m46.7 15.4-6.5-8.2c-.3-.4-.7-.6-1.2-.6h-8.3V1.5C30.7.7 30 0 29.2 0H1.5C.7 0 0 .7 0 1.5S.7 3 1.5 3h26.2v21.7H15.8c-.6-1.9-2.4-3.3-4.5-3.3-2.6 0-4.8 2.2-4.8 4.8 0 2.6 2.2 4.8 4.8 4.8 2.1 0 3.9-1.4 4.5-3.3h13.4c.8 0 1.5-.7 1.5-1.5V9.6h7.6l5.7 7.3v7.9h-2.2c-.6-1.9-2.4-3.3-4.5-3.3-2.6 0-4.8 2.2-4.8 4.8 0 2.6 2.1 4.8 4.8 4.8 2.1 0 3.9-1.4 4.5-3.3h3.7c.8 0 1.5-.7 1.5-1.5v-9.9c0-.4-.1-.7-.3-1ZM11.3 28c-1 0-1.8-.8-1.8-1.8s.8-1.8 1.8-1.8 1.8.8 1.8 1.8-.9 1.8-1.8 1.8Zm26.1 0c-1 0-1.8-.8-1.8-1.8s.8-1.8 1.8-1.8 1.8.8 1.8 1.8-.9 1.8-1.8 1.8Z"/><path d="M19.4 9.6c.8 0 1.5-.7 1.5-1.5s-.7-1.5-1.5-1.5H4.8c-.8 0-1.5.7-1.5 1.5S4 9.6 4.8 9.6h14.6ZM17.7 14.7c0-.8-.7-1.5-1.5-1.5H1.5c-.8 0-1.5.7-1.5 1.5s.7 1.5 1.5 1.5h14.7c.8 0 1.5-.7 1.5-1.5Z"/></g><defs><clipPath id="a"><path fill="#fff" d="M0 0h47v31H0z"/></clipPath></defs></svg>

<svg width="47" height="31" viewBox="0 0 47 31" fill="none" xmlns="http://www.w3.org/2000/svg">
<path d="M46.7 15.4L40.2 7.2C39.9 6.8 39.5 6.6 39 6.6H30.7V1.5C30.7 0.7 30 0 29.2 0H1.5C0.7 0 0 0.7 0 1.5C0 2.3 0.7 3 1.5 3H27.7V24.7H15.8C15.2 22.8 13.4 21.4 11.3 21.4C8.7 21.4 6.5 23.6 6.5 26.2C6.5 28.8 8.7 31 11.3 31C13.4 31 15.2 29.6 15.8 27.7H29.2C30 27.7 30.7 27 30.7 26.2V9.6H38.3L44 16.9V24.8H41.8C41.2 22.9 39.4 21.5 37.3 21.5C34.7 21.5 32.5 23.7 32.5 26.3C32.5 28.9 34.6 31.1 37.3 31.1C39.4 31.1 41.2 29.7 41.8 27.8H45.5C46.3 27.8 47 27.1 47 26.3V16.4C47 16 46.9 15.7 46.7 15.4ZM11.3 28C10.3 28 9.5 27.2 9.5 26.2C9.5 25.2 10.3 24.4 11.3 24.4C12.3 24.4 13.1 25.2 13.1 26.2C13.1 27.2 12.2 28 11.3 28ZM37.4 28C36.4 28 35.6 27.2 35.6 26.2C35.6 25.2 36.4 24.4 37.4 24.4C38.4 24.4 39.2 25.2 39.2 26.2C39.2 27.2 38.3 28 37.4 28Z" fill="black"/>
<path d="M19.4 9.6C20.2 9.6 20.9 8.9 20.9 8.1C20.9 7.3 20.2 6.6 19.4 6.6H4.8C4 6.6 3.3 7.3 3.3 8.1C3.3 8.9 4 9.6 4.8 9.6H19.4Z" fill="black"/>
<path d="M17.7 14.7C17.7 13.9 17 13.2 16.2 13.2H1.5C0.7 13.2 0 13.9 0 14.7C0 15.5 0.7 16.2 1.5 16.2H16.2C17 16.2 17.7 15.5 17.7 14.7Z" fill="black"/>
</svg>
